X: 35639
T: Sailing Through The Narrows
R: waltz
M: 3/4
K: Gmajor
D2|:B2 B ABd|BcE EFG|A2 E3 G|FG/F/E DGA|
B2 B ABd|BcE EFG|GFE DAB|1 G4 D2:|2 G4 F2||
|:E2 E DEF|FGE EFG|GF D2 A2-|ABA GFG|
E2 E DEF|FGE EFG|GFE DAB|1 G4 F2:|2 G4 D2||

